icons/svg/format-object-square.svg

﻿<?xml version="1.0" encoding="utf-8"?>
<!DOCTYPE svg PUBLIC "-//W3C//DTD SVG 1.1//EN" "http://www.w3.org/Graphics/SVG/1.1/DTD/svg11.dtd">
<svg xmlns="http://www.w3.org/2000/svg" xmlns:xlink="http://www.w3.org/1999/xlink" version="1.1" baseProfile="full" width="24" height="24" viewBox="0 0 24.00 24.00" enable-background="new 0 0 24.00 24.00" xml:space="preserve">
	<path fill="#000000" fill-opacity="1" stroke-width="0.2" stroke-linejoin="round" d="M 12,7L 17,17L 7,17L 12,7 Z M 3,3L 21,3L 21,5L 3,5L 3,3 Z M 3,7.00001L 6,7.00001L 6,9.00001L 3,9.00001L 3,7.00001 Z M 21,7.00001L 21,9.00001L 18,9.00001L 18,7.00001L 21,7.00001 Z M 3,11L 6,11L 6,13L 3,13L 3,11 Z M 21,11L 21,13L 18,13L 18,11L 21,11 Z M 3,15L 6,15L 6,17L 3,17L 3,15 Z M 21,15L 21,17L 18,17L 18,15L 21,15 Z M 3,19L 21,19L 21,21L 3,21L 3,19 Z "/>
</svg>

<svg xmlns="http://www.w3.org/2000/svg" version="1.1" baseProfile="full" width="24" height="24" viewBox="0 0 24.00 24.00" xml:space="preserve"><path fill="#000" fill-opacity="1" stroke-width=".2" stroke-linejoin="round" d="M12 7l5 10H7l5-10zM3 3h18v2H3V3zm0 4h3v2H3V7zm18 0v2h-3V7h3zM3 11h3v2H3v-2zm18 0v2h-3v-2h3zM3 15h3v2H3v-2zm18 0v2h-3v-2h3zM3 19h18v2H3v-2z"/></svg>
